X:1
T:Fortune hellas
T:Fortune hellas
T:Thomas Crecquillon
C:Thomas Crecquillon
%%score [ 1 [ 2 3 ] 4 ]
L:1/8
Q:1/4=84
M:2/2
K:F
V:1 treble nm="Superius" snm="S"
V:2 treble-8 nm="Tenor 1" snm="T 1"
V:3 treble-8 nm="Tenor 2" snm="T 2"
V:4 bass nm="Bass" snm="B"
V:1
 d4 c4- | c2 B2 A3 G/F/ | A2 G3 FED | E4 D3 E | FG A4 G2- | G2 F2 G4- | G2 G2 F4- | F2 E2 D4- | %8
w: For- tu-|* ne'hel- las, _ _|_ _ _ _ _||||* for- tu-|* ne'hel- las,|
 D8 | z2 D2 DEFG | A2 B4 A2 | G4 F4- | F4 z2 D2 | F6 G2 | A6 B2 | c6 B2 | A3 G F2 E2- | ED D4 C2 | %18
w: _|que te _ _ _|_ peult pro-|fi- ter,|_ de|si sou-|vent ta-|rou- e|re- * * *|* * * tour-|
 D8- | D8 | z2 D2 F2 G2 | F3 G A2 B2- | B2 A4 G2 | A8 | A4 B4- | B2 A2 G4 | G4 F4 |: z2 D2 F4- | %28
w: ner?|_|Si n'as em-|prins de moy fai-|* re mou-|rir,|de moy|_ fai- re|mou- rir,|con- ten-|
 F2 F2 E2 c2- | cB A2 G2 F2 | E4 D2 F2 | G6 F2 | F4 z2 E2 | A6 G2 | G2 B2 A2 G2 | F2 G4 F2 | G8 :| %37
w: * te toy, car|_ trop m'y fais lan-|* guir, con-|ten- te|toy, con-|ten- te|toy, car trop m'y|fais lan- *|guir,|
 G8 |] %38
w: guir.|
V:2
 z8 | z2 g4 f2- | f2 e3 d d2- | d2 c2 d2 B2- | B2 A2 c4 | d8- | d4 d4 | c6 B2 | A2 A2 B2 B2 | %9
w: |For- tu|_ ne'hel- * las,|_ _ _ _|||* for-|tu- ne'hel-|las, que te peult|
 B2 B2 A2 d2 | e2 f4 f2 | d4 d4 | A4 A2 B2 | F2 f2 d2 e2 | f6 ed | c3 d e2 d2- | d2 c2 d2 c2 | %17
w: pro- fi- * *|* ter, [pro-|fi- ter,]|de si sou-|vent ta rou- e|re- * *|||
 B2 G2 A4 | F4 A2 B2 | A3 G A2 B2 | A2 A2 d4- | d4 z2 d2 | f2 f2 e2 d2 | e4 f4- | f4 z2 d2 | %25
w: * tour- ner?|Si n'as em-|pris de moy fai-|re mou- rir,|_ de|moy fai- * re|mou- rir,|_ de|
 g6 f2 |"^b""^b" e2 e2 d4 |: G4 d4- | d2 d2 cBAG | F2 c3 B B2- | B2 A2 B4- | B4 z2 B2 | d6 c2 | %33
w: moy fai-|re mou- rir,|con- ten-|* te toy, _ _ _|_ con- * ten-|* te toy,|_ con-|ten- te|
 c2 f4 e2- | e2 d2 e4 | d2 c2 d4 | B4 z4 :| B8 |] %38
w: toy car trop|_ m'y fais|lan- * *|guir,|guir.|
V:3
 z8 | z4 d4 | c6 B2 | A4 B3 c | d2 c3 B AG | A4 G4 | B4 A4- | A2 G2 F2 G2- | G2 F2 G4 | %9
w: |For-|tu- ne'hel-|las, _ _|_ _ _ _ _||for- tu-|* ne'hel- las, que|_ te peult|
 D2 DE FG AB | c2 d4 c2 | B4 A2 D2 | F6 G2 | A6 B2 | cBAG F2 G2- | G2 F2 G4 | F2 E2 D2 G2 | %17
w: pro- fi- * * * * *||* ter, de|si sou-|vent ta|rou- * * * e re-|||
 F2 ED E4 | D4 z4 | D4 F2 G2 | F3 G A2 B2- | B2 A4 G2 | A3 B c2 d2- | d2 c2 d2 A2 | d6 B2 | B4 B4 | %26
w: * * * tour-|ner?|Si n'as em-|pris de moy fai-|* re mou-|rir,- de moy fai-|* re mou- rir,|de moy|fai- re|
 c4 A2 F2 |: B6 B2 | A4 A4 | A2 A2 B4 | c4 d4 | z2 G2 B4- | B2 A2 A4 | z2 A2 c4- | c2 B2 c3 B | %35
w: mou- rir, con-|ten- te|toy, car|trop m'y fais|lan- guir,|con- ten-|* te toy,|car- trop|_ m'y fais _|
 A2 G2 A4 | G4 z2 G2 :| G8 |] %38
w: _ _ lan-|guir, con-|guir.|
V:4
 z8 | z8 | z8 | z4 G,4 | F,6 E,2 | D,4 z2 G,,2 | G,,A,, B,,C, D,C, D,E, | F,2 C,2 D,4- | %8
w: |||For-|tu- ne'hel-|las,- que|te _ _ _ peult _ _ _|pro- fi- ter,|
 D,4 z2 G,,2 | G,,A,, B,,C, D,4 | C,2 B,,2 F,4 | G,4 D,4 | z2 D,2 D,2 G,,2 |"^#" D,2 D,2 D,2 G,2 | %14
w: _ que|te _ _ _ peult|pro- * fi-|* ter,|de si sou-|vent ta rou- e|
 F,3 E, D,2 C,B,, | A,,4 G,,2 G,,2 | D,2 A,,2 B,,2 C,2 | D,2 B,,2 A,,4 | z2 D,2 F,2 G,2 | %19
w: re- * * * *|tour- ner, ta-|rou- e re- *|* tour- ner?|Si n'as em-|
 F,3 E, D,2 G,,2 | D,2 D,2 D,2 G,,2 | D,2 D,2 F,2 G,2 | F,3 G, A,2 B,2 | A,2 A,2 D,4 | %24
w: pris de moy fai-|re mou- rir, de|moy fai- re mou-|rir, de moy fai-|re mou- rir,|
 z2 D,2 G,4- | G,2 F,2 _E,2 D,2 | C,4 D,4 |: z4 B,,4 | D,2 D,2 A,,4 | z2 F,2 E,2 D,2 | %30
w: de moy|_ fai- re _|mou- rir,|con-|ten- te toy,|car trop m'y|
"^#" C,2 C,2 B,,2 B,,2 |"^b" E,6 B,,2 | B,,C,D,E, F,2 F,2 | F,2 F,2 C,4 | G,4 C,4 | %35
w: fais lan- guir, con-|ten te|toy, _ _ _ _ car|trop m'y fais|lan- guir,|
"^b" D,2 E,2 D,4 | G,,8 :| G,,8 |] %38
w: m'y fais lan-|guir,|guir.|

